X:56
T: Nach der Wandlung, S. 23f
N: L0017
O: Luxemburg
S: Die Luxemburger Volkslieder lterer Zeit, Luxemburg 1904 posth.]
R: geistliches, religises Lied]
M: 4/4
L: 1/8
K: G
DG | G4A2GA | E4D2z2 |
G4D2GA | B2A4zF | G8- | G2z4
GA | B2B2B2AB | c2B2A2z2 |
d4c2B2 | A6GB | A8- | A2z4
GA | B2B2B2AB | c2B2A2z2 |
d4c2B2 | A3Gc4 |
BAGBA3G | G6

@@@ Tune index: 8110
